X: 1
T: Condon's Frolics
S: Trouble In The Kitchen - Down The Broom
M: 6/8
L: 1/8
R: jig
K: Bmin
fbb faf|fed cBA|d3 ede|f2e fba|
fbb faf|fed cBc|Ace aec|~B3 Bde:|
|:fBc d2f|fed cBA|fBc d2e|f2e fba|
fBc d2f|fed cBc|Ace aec|~B3 Bde:|
